X:22902
T:Bonny Kaye
R:
B:Tuneworks Tunebook 2 (https://www.tuneworks.co.uk/)
G:Tuneworks
Z:Jon Warbrick <jon.warbrick@googlemail.com>
M:2/4
L:1/8
K:G
f |: "G" g>f g>f | gd dB | "C" c/d/e dc | "G" BG G>A |
"G" BG GA/B/ | "C" cA Ac | "G" B/c/d cB |1 "D" Ad ef :|2 "D" A2 A2 |
|: "G" BG GA/B/ | "Am" cA"Bm" dB | "C" ec cd/e/ | "D" f2 de/f/ |
"G" g>f ge | de/f/ gB | "C" c/d/e"D" d>c |1 "G" BG G>A :|2 "G" BG G2 |]
